build/flags/Cameroon.svg

<svg xmlns="http://www.w3.org/2000/svg" fill="none" viewBox="0 0 28 28" focusable="false"><defs><linearGradient id="Cameroon_svg__c" x1="13.333" x2="13.333" y1="4" y2="24" gradientUnits="userSpaceOnUse"><stop offset="0" stop-color="#FFDC43"/><stop offset="1" stop-color="#FDD216"/></linearGradient><filter id="Cameroon_svg__a"><feColorMatrix values="0 0 0 0 1 0 0 0 0 1 0 0 0 0 1 0 0 0 1 0"/></filter></defs><mask id="Cameroon_svg__b" width="28" height="20" x="0" y="4" maskUnits="userSpaceOnUse"><g filter="url(#Cameroon_svg__a)"><rect width="28" height="20" y="4" fill="#FFF" rx="3"/><rect width="28" height="20" y="4" stroke="#969696" stroke-opacity="0" stroke-width="0" rx="3"/></g></mask><path fill="none" d="M0 0H28V28H0z"/><rect width="28" height="20" y="4" fill="#FFF" rx="3"/><rect width="28" height="20" y="4" rx="3"/><g mask="url(#Cameroon_svg__b)"><path fill="url(#Cameroon_svg__c)" d="M13.333 4H28V24H13.333z"/><path d="M13.333 4H28V24H13.333z"/><path fill="#059170" fill-rule="evenodd" d="M0 24L9.33333 24L9.33333 4L0 4L0 24Z"/><path d="M9.33333 24L9.33333 4L0 4L0 24L9.33333 24Z"/><path fill="#E21A30" fill-rule="evenodd" d="M9.33334 24L18.6667 24L18.6667 4L9.33334 4L9.33334 24Z"/><path d="M18.6667 24L18.6667 4L9.33334 4L9.33334 24L18.6667 24Z"/><path fill="#FFDC44" fill-rule="evenodd" d="M18.6667 24L28 24L28 4L18.6667 4L18.6667 24Z"/><path d="M28 24L28 4L18.6667 4L18.6667 24L28 24Z"/><path fill="#FFDC42" fill-rule="evenodd" d="M14 15.3L12.0407 16.6967L12.7636 14.4017L10.8298 12.97L13.2359 12.9483L14 10.6667L14.7641 12.9483L17.1702 12.97L15.2364 14.4017L15.9593 16.6967L14 15.3Z"/><path d="M12.0407 16.6967L12.7636 14.4017L10.8298 12.97L13.2359 12.9483L14 10.6667L14.7641 12.9483L17.1702 12.97L15.2364 14.4017L15.9593 16.6967L14 15.3L12.0407 16.6967Z"/></g></svg>

<svg xmlns="http://www.w3.org/2000/svg" fill="none" viewBox="0 0 28 28" focusable="false"><defs><linearGradient id="Cameroon_svg__b" x1="13.333" x2="13.333" y1="4" y2="24" gradientUnits="userSpaceOnUse"><stop stop-color="#FFDC44"/><stop offset="1" stop-color="#FDD216"/></linearGradient></defs><path fill="none" d="M0 0h28v28H0z"/><rect width="28" height="20" y="4" fill="#FFF" rx="3"/><rect width="28" height="20" y="4" rx="3"/><mask id="Cameroon_svg__a" width="28" height="20" x="0" y="4" mask-type="alpha" maskUnits="userSpaceOnUse"><rect width="28" height="20" y="4" fill="#FFF" rx="3"/><rect width="28" height="20" y="4" stroke="#979797" stroke-opacity="0" stroke-width="0" rx="3"/></mask><g mask="url(#Cameroon_svg__a)"><path fill="url(#Cameroon_svg__b)" d="M13.333 4H28v20H13.333z"/><path d="M13.333 4H28v20H13.333z"/></g><g mask="url(#Cameroon_svg__a)"><path fill="#059170" fill-rule="evenodd" d="M0 24h9.33V4H0z"/><path d="M9.33 24V4H0v20z"/></g><g mask="url(#Cameroon_svg__a)"><path fill="#E21A30" fill-rule="evenodd" d="M9.33 24h9.33V4H9.33z"/><path d="M18.66 24V4H9.33v20z"/></g><g mask="url(#Cameroon_svg__a)"><path fill="#FFDC44" fill-rule="evenodd" d="M18.66 24H28V4h-9.34z"/><path d="M28 24V4h-9.34v20z"/></g><g mask="url(#Cameroon_svg__a)"><path fill="#FFDC42" fill-rule="evenodd" d="m14 15.3-1.96 1.39.72-2.29-1.94-1.43 2.41-.03.77-2.28.76 2.28 2.41.03-1.94 1.43.72 2.29z"/><path d="m12.04 16.69.72-2.29-1.94-1.43 2.41-.03.77-2.28.76 2.28 2.41.03-1.94 1.43.72 2.29L14 15.3z"/></g></svg>
